src/images/headless/medusa.svg

<svg fill="none" height="49" viewBox="0 0 204 49" width="204" xmlns="http://www.w3.org/2000/svg" xmlns:xlink="http://www.w3.org/1999/xlink"><linearGradient id="a" gradientUnits="userSpaceOnUse" x1="0" x2="45.2768" y1="24.5" y2="24.5"><stop offset="0" stop-color="#7c53ff"/><stop offset="1" stop-color="#f796ff"/></linearGradient><g fill="#111827"><path d="m81.4167 35.7292h-4.5989v-11.9642c0-1.3339-.3256-2.382-.9768-3.1442-.6512-.7894-1.5465-1.1842-2.6861-1.1842-1.3023 0-2.3198.4356-3.0524 1.3067-.7054.8711-1.0581 2.0689-1.0581 3.5934v11.3925h-4.6396v-20.0084h4.5582v1.7558c1.2481-1.4972 2.971-2.2458 5.1687-2.2458 2.469 0 4.3275.8711 5.5756 2.6133 1.5466-1.7422 3.6222-2.6133 6.2269-2.6133s4.5717.7622 5.9012 2.2867c1.3566 1.4972 2.0349 3.6886 2.0349 6.5741v11.6376h-4.6396v-11.9642c0-1.3339-.3256-2.382-.9767-3.1442-.6512-.7894-1.5466-1.1842-2.6861-1.1842-1.3024 0-2.3198.4492-3.0524 1.3475-.7326.8712-1.0988 2.0553-1.0988 3.5526z"/><path d="m116.441 25.48-.041 1.6333h-13.634c.109 1.4972.638 2.6814 1.588 3.5525.949.8711 2.17 1.3067 3.662 1.3067 2.144 0 3.853-.9392 5.128-2.8175l3.134 2.94c-2.116 2.7222-4.87 4.0833-8.262 4.0833-3.011 0-5.426-.9528-7.244-2.8583-1.8448-1.9328-2.7673-4.4236-2.7673-7.4725 0-2.9672.8411-5.4853 2.5233-7.5542 1.709-2.0417 3.975-3.0625 6.797-3.0625 3.011 0 5.277 1.0072 6.796 3.0217 1.547 2.0144 2.32 4.4236 2.32 7.2275zm-9.076-6.0025c-1.166 0-2.13.3675-2.889 1.1025-.733.735-1.221 1.6742-1.465 2.8175h8.506c-.028-1.1161-.394-2.0417-1.099-2.7767-.706-.7622-1.723-1.1433-3.053-1.1433z"/><path d="m130.108 15.2308c2.224 0 4.083.6533 5.575 1.96v-10.08582h4.64v28.62422h-4.558v-1.7967c-1.411 1.4972-3.297 2.2458-5.657 2.2458-2.822 0-5.155-.98-7-2.94-1.818-1.9872-2.727-4.4916-2.727-7.5133s.909-5.5261 2.727-7.5134c1.817-1.9872 4.151-2.9808 7-2.9808zm4.232 5.9208c-.949-1.1977-2.252-1.7966-3.907-1.7966s-2.957.5989-3.907 1.7966c-.949 1.1978-1.424 2.7223-1.424 4.5734s.475 3.3755 1.424 4.5733c.95 1.1978 2.252 1.7967 3.907 1.7967s2.958-.5989 3.907-1.7967c.95-1.1978 1.425-2.7222 1.425-4.5733s-.475-3.3756-1.425-4.5734z"/><path d="m145.431 15.7208h4.64v11.9642c0 1.3339.325 2.3955.977 3.185.651.7622 1.573 1.1433 2.767 1.1433 1.275 0 2.279-.4491 3.012-1.3475.759-.9255 1.139-2.1505 1.139-3.675v-11.27h4.64v20.0084h-4.558v-1.6334c-1.276 1.3884-2.998 2.0825-5.169 2.0825-2.279 0-4.097-.7758-5.454-2.3275-1.329-1.5789-1.994-3.743-1.994-6.4925z"/><path d="m176.355 28.175-2.646-.6533c-4.042-.9528-6.064-3.0625-6.064-6.3292 0-1.7967.679-3.2395 2.035-4.3283 1.357-1.0889 3.107-1.6334 5.25-1.6334 2.876 0 5.386 1.1161 7.53 3.3483l-2.971 3.1851c-1.221-1.6878-2.781-2.5317-4.681-2.5317-.814 0-1.478.1905-1.994.5716-.488.3539-.732.7895-.732 1.3067 0 .9256.651 1.5517 1.953 1.8784l3.134.735c4.07.9255 6.105 3.008 6.105 6.2475 0 1.8511-.706 3.3483-2.117 4.4916-1.383 1.1434-3.31 1.715-5.779 1.715-3.473 0-6.227-1.293-8.262-3.8791l2.931-3.0217c1.465 1.9328 3.364 2.8992 5.697 2.8992 2.035 0 3.053-.6806 3.053-2.0417 0-.8711-.814-1.5245-2.442-1.96z"/><path d="m193.271 36.1783c-1.926 0-3.527-.5444-4.802-1.6333-1.275-1.1161-1.913-2.5997-1.913-4.4508 0-2.1234.76-3.7703 2.279-4.9409 1.52-1.1705 3.527-1.7558 6.024-1.7558 1.248 0 2.591.2314 4.029.6941v-1.3474c0-.98-.367-1.7695-1.099-2.3684-.733-.6261-1.669-.9392-2.808-.9392-2.089 0-3.663.9664-4.721 2.8992l-3.134-2.94c.732-1.3339 1.804-2.3547 3.215-3.0625 1.438-.735 2.998-1.1025 4.68-1.1025 2.632 0 4.708.6533 6.227 1.96 1.52 1.3067 2.279 3.1714 2.279 5.5942v12.9442h-4.558v-1.5517c-1.492 1.3339-3.391 2.0008-5.698 2.0008zm-2.075-6.4108c0 .6805.257 1.2386.773 1.6742.543.4355 1.289.6533 2.238.6533 1.954 0 3.514-.5717 4.681-1.715v-2.2867c-1.465-.5444-2.849-.8166-4.152-.8166-1.085 0-1.953.2177-2.604.6533-.624.4355-.936 1.048-.936 1.8375z"/></g><path d="m39.5317 7.95388-11.0262-6.38353c-3.6076-2.0938-8.0283-2.0938-11.6359 0l-11.07703 6.38353c-3.55684 2.09382-5.79257 5.97502-5.79257 10.11152v12.8181c0 4.1876 2.23573 8.0178 5.79257 10.1116l11.02623 6.4346c3.6076 2.0937 8.0283 2.0937 11.6359 0l11.0262-6.4346c3.6077-2.0938 5.7926-5.924 5.7926-10.1116v-12.8181c.1016-4.1365-2.1341-8.0177-5.7418-10.11152zm-16.8696 27.93432c-6.2498 0-11.331-5.1068-11.331-11.3882s5.0812-11.3882 11.331-11.3882c6.2499 0 11.3819 5.1068 11.3819 11.3882s-5.0812 11.3882-11.3819 11.3882z" fill="url(#a)"/></svg>

<svg width="204" height="49" viewBox="0 0 204 49" fill="none" xmlns="http://www.w3.org/2000/svg">
<path d="M81.4167 35.7292H76.8178V23.765C76.8178 22.4311 76.4922 21.383 75.841 20.6208C75.1898 19.8314 74.2945 19.4366 73.1549 19.4366C71.8526 19.4366 70.8351 19.8722 70.1025 20.7433C69.3971 21.6144 69.0444 22.8122 69.0444 24.3367V35.7292H64.4048V15.7208H68.963V17.4766C70.2111 15.9794 71.934 15.2308 74.1317 15.2308C76.6007 15.2308 78.4592 16.1019 79.7073 17.8441C81.2539 16.1019 83.3295 15.2308 85.9342 15.2308C88.5389 15.2308 90.5059 15.993 91.8354 17.5175C93.192 19.0147 93.8703 21.2061 93.8703 24.0916V35.7292H89.2307V23.765C89.2307 22.4311 88.9051 21.383 88.254 20.6208C87.6028 19.8314 86.7074 19.4366 85.5679 19.4366C84.2655 19.4366 83.2481 19.8858 82.5155 20.7841C81.7829 21.6553 81.4167 22.8394 81.4167 24.3367V35.7292Z" fill="#111827"/>
<path d="M116.441 25.48L116.4 27.1133H102.766C102.875 28.6105 103.404 29.7947 104.354 30.6658C105.303 31.5369 106.524 31.9725 108.016 31.9725C110.16 31.9725 111.869 31.0333 113.144 29.155L116.278 32.095C114.162 34.8172 111.408 36.1783 108.016 36.1783C105.005 36.1783 102.59 35.2255 100.772 33.32C98.9272 31.3872 98.0047 28.8964 98.0047 25.8475C98.0047 22.8803 98.8458 20.3622 100.528 18.2933C102.237 16.2516 104.503 15.2308 107.325 15.2308C110.336 15.2308 112.602 16.238 114.121 18.2525C115.668 20.2669 116.441 22.6761 116.441 25.48ZM107.365 19.4775C106.199 19.4775 105.235 19.845 104.476 20.58C103.743 21.315 103.255 22.2542 103.011 23.3975H111.517C111.489 22.2814 111.123 21.3558 110.418 20.6208C109.712 19.8586 108.695 19.4775 107.365 19.4775Z" fill="#111827"/>
<path d="M130.108 15.2308C132.332 15.2308 134.191 15.8841 135.683 17.1908V7.10498H140.323V35.7292H135.765V33.9325C134.354 35.4297 132.468 36.1783 130.108 36.1783C127.286 36.1783 124.953 35.1983 123.108 33.2383C121.29 31.2511 120.381 28.7467 120.381 25.725C120.381 22.7033 121.29 20.1989 123.108 18.2116C124.925 16.2244 127.259 15.2308 130.108 15.2308ZM134.34 21.1516C133.391 19.9539 132.088 19.355 130.433 19.355C128.778 19.355 127.476 19.9539 126.526 21.1516C125.577 22.3494 125.102 23.8739 125.102 25.725C125.102 27.5761 125.577 29.1005 126.526 30.2983C127.476 31.4961 128.778 32.095 130.433 32.095C132.088 32.095 133.391 31.4961 134.34 30.2983C135.29 29.1005 135.765 27.5761 135.765 25.725C135.765 23.8739 135.29 22.3494 134.34 21.1516Z" fill="#111827"/>
<path d="M145.431 15.7208H150.071V27.685C150.071 29.0189 150.396 30.0805 151.048 30.87C151.699 31.6322 152.621 32.0133 153.815 32.0133C155.09 32.0133 156.094 31.5642 156.827 30.6658C157.586 29.7403 157.966 28.5153 157.966 26.9908V15.7208H162.606V35.7292H158.048V34.0958C156.772 35.4842 155.05 36.1783 152.879 36.1783C150.6 36.1783 148.782 35.4025 147.425 33.8508C146.096 32.2719 145.431 30.1078 145.431 27.3583V15.7208Z" fill="#111827"/>
<path d="M176.355 28.175L173.709 27.5217C169.667 26.5689 167.645 24.4592 167.645 21.1925C167.645 19.3958 168.324 17.953 169.68 16.8642C171.037 15.7753 172.787 15.2308 174.93 15.2308C177.806 15.2308 180.316 16.3469 182.46 18.5791L179.489 21.7642C178.268 20.0764 176.708 19.2325 174.808 19.2325C173.994 19.2325 173.33 19.423 172.814 19.8041C172.326 20.158 172.082 20.5936 172.082 21.1108C172.082 22.0364 172.733 22.6625 174.035 22.9892L177.169 23.7242C181.239 24.6497 183.274 26.7322 183.274 29.9717C183.274 31.8228 182.568 33.32 181.157 34.4633C179.774 35.6067 177.847 36.1783 175.378 36.1783C171.905 36.1783 169.151 34.8853 167.116 32.2992L170.047 29.2775C171.512 31.2103 173.411 32.1767 175.744 32.1767C177.779 32.1767 178.797 31.4961 178.797 30.135C178.797 29.2639 177.983 28.6105 176.355 28.175Z" fill="#111827"/>
<path d="M193.271 36.1783C191.345 36.1783 189.744 35.6339 188.469 34.545C187.194 33.4289 186.556 31.9453 186.556 30.0942C186.556 27.9708 187.316 26.3239 188.835 25.1533C190.355 23.9828 192.362 23.3975 194.859 23.3975C196.107 23.3975 197.45 23.6289 198.888 24.0916V22.7442C198.888 21.7642 198.521 20.9747 197.789 20.3758C197.056 19.7497 196.12 19.4366 194.981 19.4366C192.892 19.4366 191.318 20.403 190.26 22.3358L187.126 19.3958C187.858 18.0619 188.93 17.0411 190.341 16.3333C191.779 15.5983 193.339 15.2308 195.021 15.2308C197.653 15.2308 199.729 15.8841 201.248 17.1908C202.768 18.4975 203.527 20.3622 203.527 22.785V35.7292H198.969V34.1775C197.477 35.5114 195.578 36.1783 193.271 36.1783ZM191.196 29.7675C191.196 30.448 191.453 31.0061 191.969 31.4417C192.512 31.8772 193.258 32.095 194.207 32.095C196.161 32.095 197.721 31.5233 198.888 30.38V28.0933C197.423 27.5489 196.039 27.2767 194.736 27.2767C193.651 27.2767 192.783 27.4944 192.132 27.93C191.508 28.3655 191.196 28.978 191.196 29.7675Z" fill="#111827"/>
<path d="M39.5317 7.95388L28.5055 1.57035C24.8979 -0.52345 20.4772 -0.52345 16.8696 1.57035L5.79257 7.95388C2.23573 10.0477 0 13.9289 0 18.0654V30.8835C0 35.0711 2.23573 38.9013 5.79257 40.9951L16.8188 47.4297C20.4264 49.5234 24.8471 49.5234 28.4547 47.4297L39.4809 40.9951C43.0886 38.9013 45.2735 35.0711 45.2735 30.8835V18.0654C45.3751 13.9289 43.1394 10.0477 39.5317 7.95388ZM22.6621 35.8882C16.4123 35.8882 11.3311 30.7814 11.3311 24.5C11.3311 18.2186 16.4123 13.1118 22.6621 13.1118C28.912 13.1118 34.044 18.2186 34.044 24.5C34.044 30.7814 28.9628 35.8882 22.6621 35.8882Z" fill="url(#paint0_linear_107_5)"/>
<defs>
<linearGradient id="paint0_linear_107_5" x1="-1.75721e-09" y1="24.5" x2="45.2768" y2="24.5" gradientUnits="userSpaceOnUse">
<stop stop-color="#7C53FF"/>
<stop offset="1" stop-color="#F796FF"/>
</linearGradient>
</defs>
</svg>
